public/img/background-main.svg

<svg height="886" viewBox="0 0 1405 886" width="1405" xmlns="http://www.w3.org/2000/svg"><g fill="#f2f8ff" fill-opacity=".124123" opacity=".25" stroke-dasharray="2 1 2 1" transform="translate(1 1)"><g transform="translate(978)"><path d="m301.723092 276.446184c-5.237759 0-10.108204 1.602364-14.148669 4.341229l-84.884977-84.884977c7.294468-8.806602 11.684331-20.101221 11.684331-32.402436s-4.389863-23.595834-11.684331-32.402436l58.556677-58.5566775c6.919474 5.4591722 15.641607 8.7291722 25.118848 8.7291722 22.406219 0 40.635029-18.2288102 40.635029-40.6350293 0-22.4062192-18.22881-40.6350294-40.635029-40.6350294-22.40622 0-40.63503 18.2288102-40.63503 40.6350294 0 9.4772407 3.27 18.1993737 8.729173 25.1188473l-58.556678 58.5566773c-8.806602-7.294468-20.101221-11.684331-32.402436-11.684331s-23.595834 4.389863-32.402436 11.684331l-38.8106129-38.8106127c2.7388649-4.0398258 4.3412289-8.9102701 4.3412289-14.1486693 0-13.9374951-11.3394129-25.276908-25.276908-25.276908s-25.276908 11.3394129-25.276908 25.276908 11.3394129 25.276908 25.276908 25.276908c5.2377593 0 10.1082035-1.602364 14.1486693-4.3412289l38.8106127 38.8106129c-7.294468 8.806602-11.684331 20.101221-11.684331 32.402436 0 5.909677 1.023875 11.581943 2.884767 16.863217l-59.8832346 27.638219c-5.4636517-8.115487-14.7341977-13.465232-25.2314736-13.465232-16.7601898 0-30.3962818 13.636091-30.3962818 30.396281s13.636092 30.396282 30.3962818 30.396282 30.3962818-13.636092 30.3962818-30.396282c0-2.847651-.4025108-5.601874-1.1377808-8.217874l59.8934732-27.643339c8.798284 15.063757 25.105409 25.226354 43.757208 25.297386l3.407583 37.481495c-10.529272 3.052426-18.251207 12.776677-18.251207 24.27607 0 13.937495 11.339412 25.276908 25.276908 25.276908 13.937495 0 25.276908-11.339413 25.276908-25.276908 0-13.08256-9.991098-23.874839-22.744098-25.149564l-3.406944-37.481495c8.640224-1.615162 16.522139-5.408618 23.037822-10.805718l84.884977 84.884977c-2.738865 4.039826-4.341229 8.91027-4.341229 14.148669 0 13.937495 11.339413 25.276908 25.276908 25.276908s25.276908-11.339413 25.276908-25.276908-11.339413-25.276908-25.276908-25.276908zm-270.723092-30.446184c-11.5790769 0-21-9.420923-21-21s9.4209231-21 21-21c8.3205231 0 15.5264308 4.864892 18.9232615 11.898923.0394154.103385.0775385.207415.1247077.309508.0258462.056215.0607385.104677.0885231.1596 1.1934462 2.635661 1.8635077 5.556277 1.8635077 8.631969 0 11.579077-9.4209231 21-21 21zm255-236c17.093464 0 31 13.9065361 31 31s-13.906536 31-31 31-31-13.9065361-31-31 13.906536-31 31-31zm-230 61.5c0-8.5465102 6.9534898-15.5 15.5-15.5s15.5 6.9534898 15.5 15.5-6.9534898 15.5-15.5 15.5-15.5-6.9534898-15.5-15.5zm66 92c0-22.882907 18.617093-41.5 41.5-41.5s41.5 18.617093 41.5 41.5-18.617093 41.5-41.5 41.5-41.5-18.617093-41.5-41.5zm67 112c0 8.54651-6.95349 15.5-15.5 15.5s-15.5-6.95349-15.5-15.5 6.95349-15.5 15.5-15.5 15.5 6.95349 15.5 15.5zm112.5 41.5c-8.54651 0-15.5-6.95349-15.5-15.5s6.95349-15.5 15.5-15.5 15.5 6.95349 15.5 15.5-6.95349 15.5-15.5 15.5z" stroke="#fff"/><g stroke="#c3e0fb"><path d="m185.181818 163.090909c0 2.711127 2.197964 4.909091 4.909091 4.909091s4.909091-2.197964 4.909091-4.909091c0-17.1432-13.947709-31.090909-31.090909-31.090909-2.711127 0-4.909091 2.197964-4.909091 4.909091s2.197964 4.909091 4.909091 4.909091c11.729454 0 21.272727 9.543273 21.272727 21.272727z"/><path d="m286.615385 30.2307692c5.598769 0 10.153846 4.555077 10.153846 10.1538462 0 2.5489231 2.066461 4.6153846 4.615384 4.6153846s4.615385-2.0664615 4.615385-4.6153846c0-10.6886154-8.696-19.3846154-19.384615-19.3846154-2.548923 0-4.615385 2.0664615-4.615385 4.6153846s2.066462 4.6153846 4.615385 4.6153846z"/><path d="m30.8913043 216c-2.7013043 0-4.8913043 2.19-4.8913043 4.891304 0 2.701305 2.19 4.891305 4.8913043 4.891305.18 0 .326087.146087.326087.326087 0 2.701304 2.19 4.891304 4.8913044 4.891304 2.7013043 0 4.8913043-2.19 4.8913043-4.891304 0-5.574131-4.5345652-10.108696-10.1086957-10.108696z"/></g></g><g transform="matrix(-.98768834 -.15643447 .15643447 -.98768834 1379.515801 886.860624)"><path d="m141.583248 80.3753559c-10.005848-6.851486-16.583248-18.3599459-16.583248-31.3753559 0-.6521269.016511-1.3004683.049138-1.9446283l-84.989784-14.7099538c-3.7360074 6.3692551-10.6561828 10.6545821-18.5586112 10.6545821-11.85638281 0-21.5007428-9.6455123-21.5007428-21.5 0-11.85597319 9.64435999-21.5 21.4992572-21.5 11.8563828 0 21.5007428 9.64402681 21.5007428 21.5 0 .4270982-.0125157.8513259-.0371995 1.2723357l83.8826085 14.518325c4.948036-15.2418361 19.285614-26.2906607 36.154591-26.2906607 20.952687 0 38 17.0458248 38 38s-17.045825 38-38 38c-4.339041 0-8.510495-.7309746-12.397713-2.076235l-46.510846 83.488352c11.053606 7.587796 19.427711 18.808403 23.386044 31.925551l58.991998-14.404102c-.959709-3.821129-1.469483-7.818931-1.469483-11.933566 0-27.018873 21.981127-49 49-49s49 21.981127 49 49-21.981127 49-49 49c-19.379137 0-36.166658-11.307963-44.110812-27.672138l-60.351479 14.736048c.305094 2.43647.462291 4.918266.462291 7.43609 0 32.80721-26.691313 59.5-59.5 59.5-32.8086873 0-59.5-26.691313-59.5-59.5s26.6913127-59.5 59.5-59.5c8.8522721 0 17.2591989 1.943129 24.8166559 5.425264zm-120.083248-47.3753559c6.3395893 0 11.4984959-5.1604107 11.5-11.5 0-6.3410934-5.1604107-11.5-11.5-11.5-6.3410934 0-11.5 5.1589066-11.5 11.5s5.1589066 11.5 11.5 11.5zm142 43c15.162122 0 27.5-12.3378776 27.5-27.5s-12.337878-27.5-27.5-27.5-27.5 12.3378776-27.5 27.5 12.337878 27.5 27.5 27.5zm70 136c21.231249 0 38.5-17.270228 38.5-38.5s-17.270228-38.5-38.5-38.5c-21.228296 0-38.5 17.270228-38.5 38.5 0 21.228296 17.270228 38.5 38.5 38.5zm-163 55c27.2959553 0 49.5-22.204045 49.5-49.5 0-27.292996-22.2040447-49.5-49.5-49.5s-49.5 22.204045-49.5 49.5 22.2040447 49.5 49.5 49.5z" stroke="#fff"/><path d="m70.9758366 242.951673c-14.2981833 0-25.9275097-11.63227-25.9275097-25.92751 0-2.773373-2.2507899-5.024163-5.0241635-5.024163-2.7733735 0-5.0241634 2.25079-5.0241634 5.024163 0 19.83757 16.1397386 35.975837 35.9758366 35.975837 2.7733735 0 5.0241634-2.25079 5.0241634-5.024163 0-2.773374-2.2507899-5.024164-5.0241634-5.024164z" stroke="#c3e0fb"/></g><path d="m235.121759 78c1.567209 0 3.133194-.6020213 4.328804-1.8066807l29.12928-29.3491546c3.284406 1.6481566 6.982653 2.5801793 10.893942 2.5801793 13.523915 0 24.526215-11.0855805 24.526215-24.7118636 0-13.626283-11.0023-24.7124804-24.526215-24.7124804s-24.526215 11.0855805-24.526215 24.7118636c0 5.2090879 1.611899 10.043763 4.353904 14.0333876l-28.508519 28.7243109c-2.390607 2.4087019-2.390607 6.3144384 0 8.7237572 1.195609 1.2046594 2.761594 1.8066807 4.328804 1.8066807zm44.378241-66c6.892663 0 12.5 5.6073369 12.5 12.5s-5.607337 12.5-12.5 12.5-12.5-5.6073369-12.5-12.5 5.606714-12.5 12.5-12.5z" stroke="#c3e0fb"/><path d="m215.174595 95c1.580598 0 3.160578-.6032086 4.365783-1.808391l3.651428-3.6519742c2.411028-2.4109822 2.411028-6.320416-.000618-8.7313982-2.410411-2.4109821-6.320538-2.4109821-8.731566 0l-3.651428 3.6519743c-2.411028 2.4109821-2.411028 6.320416.000618 8.7313981 1.205823 1.2057998 2.785803 1.808391 4.365783 1.808391z" stroke="#c3e0fb"/><path d="m316.958032 187.975078c-4.500586 0-10.961436 2.034619-15.100618 6.830306l-81.880401-20.737642c4.532628-8.599796 7.103336-18.384096 7.103336-28.759108 0-34.161055-27.830435-61.9528708-62.03896-61.9528708-7.646807 0-14.9732 1.3924829-21.743182 3.9307027l-25.899939-40.1721753c2.880647-3.59535 4.609035-8.1499933 4.609035-13.1015219 0-11.5865892-9.439278-21.0127687-21.041968-21.0127687-11.6026896 0-21.0419675 9.4261795-21.0419675 21.0127687s9.4392779 21.0127687 21.0419675 21.0127687c2.180665 0 4.284307-.3335067 6.263481-.9506787l24.95595 38.707084c-17.511867 10.9632643-29.18172 30.4081823-29.18172 52.5266913 0 1.938277.094276 3.855018.269271 5.748376l-58.7624769 11.186639c-4.5024351-6.050501-11.7117537-9.978742-19.8237776-9.978742-13.61144-.000616-24.6860625 11.058639-24.6860625 24.651807 0 13.593167 11.0746225 24.651806 24.6860625 24.651806s24.6860625-11.058639 24.6860625-24.651806c0-1.108818-.0807197-2.199176-.2236737-3.269843l56.5294367-10.32949c5.421161 17.785999 18.65365 32.203703 35.691057 39.252878 2.46329 1.015289 4.362327 1.722918 5.697113 2.122888 1.311918.393117 3.382935.875118 6.213051 1.446003 3.809847.733469 7.741082 1.12174 11.761664 1.12174 19.374582 0 36.700977-8.917305 48.086771-22.85567l81.156389 20.122931c1.630899.164996 1.630899 1.834715 1.630899 4.45908 0 11.58659 9.439278 21.012769 21.041968 21.012769s21.0432-9.425564 21.0432-21.012153c0-11.58659-9.439278-21.012769-21.041968-21.012769zm-216.458032-145.975078c-4.6864443 0-8.5-3.8135557-8.5-8.5 0-4.687045 3.8135557-8.5 8.5-8.5 4.686444 0 8.5 3.8135557 8.5 8.5s-3.813556 8.5-8.5 8.5zm-76 148c-6.8926631 0-12.5-5.607337-12.5-12.5s5.6073369-12.5 12.5-12.5 12.5 5.607337 12.5 12.5-5.6067139 12.5-12.5 12.5zm140.000307 5c-27.294373 0-49.500307-22.205458-49.500307-49.5s22.205321-49.5 49.500307-49.5c27.293759 0 49.499693 22.205458 49.499693 49.5s-22.205934 49.5-49.499693 49.5zm151.999693 22c-4.687045 0-8.5-3.812955-8.5-8.5s3.813556-8.5 8.5-8.5 8.5 3.812955 8.5 8.5-3.813556 8.5-8.5 8.5z" stroke="#fff"/></g></svg>

<?xml version="1.0" encoding="UTF-8"?>
<svg width="1405px" height="886px" viewBox="0 0 1405 886" version="1.1" xmlns="http://www.w3.org/2000/svg" xmlns:xlink="http://www.w3.org/1999/xlink">
    <!-- Generator: Sketch 51.2 (57519) - http://www.bohemiancoding.com/sketch -->
    <title>molecule-bg</title>
    <desc>Created with Sketch.</desc>
    <defs></defs>
    <g id="FDS-Design-Pages" stroke="none" stroke-width="1" fill="none" fill-rule="evenodd" fill-opacity="0.124122509" opacity="0.25" stroke-dasharray="2,1,2,1">
        <g id="Home" transform="translate(-438.000000, -149.000000)" fill="#F2F8FF" fill-rule="nonzero">
            <g id="banner" transform="translate(439.000000, 56.000000)">
                <g id="molecule-bg" transform="translate(0.000000, 94.000000)">
                    <g id="molecule" transform="translate(978.000000, 0.000000)">
                        <path d="M301.723092,276.446184 C296.485333,276.446184 291.614888,278.048548 287.574423,280.787413 L202.689446,195.902436 C209.983914,187.095834 214.373777,175.801215 214.373777,163.5 C214.373777,151.198785 209.983914,139.904166 202.689446,131.097564 L261.246123,72.5408865 C268.165597,78.0000587 276.88773,81.2700587 286.364971,81.2700587 C308.77119,81.2700587 327,63.0412485 327,40.6350294 C327,18.2288102 308.77119,0 286.364971,0 C263.958751,0 245.729941,18.2288102 245.729941,40.6350294 C245.729941,50.1122701 248.999941,58.8344031 254.459114,65.7538767 L195.902436,124.310554 C187.095834,117.016086 175.801215,112.626223 163.5,112.626223 C151.198785,112.626223 139.904166,117.016086 131.097564,124.310554 L92.2869511,85.4999413 C95.025816,81.4601155 96.62818,76.5896712 96.62818,71.351272 C96.62818,57.4137769 85.2887671,46.074364 71.351272,46.074364 C57.4137769,46.074364 46.074364,57.4137769 46.074364,71.351272 C46.074364,85.2887671 57.4137769,96.62818 71.351272,96.62818 C76.5890313,96.62818 81.4594755,95.025816 85.4999413,92.2869511 L124.310554,131.097564 C117.016086,139.904166 112.626223,151.198785 112.626223,163.5 C112.626223,169.409677 113.650098,175.081943 115.51099,180.363217 L55.6277554,208.001436 C50.1641037,199.885949 40.8935577,194.536204 30.3962818,194.536204 C13.636092,194.536204 0,208.172295 0,224.932485 C0,241.692675 13.636092,255.328767 30.3962818,255.328767 C47.1564716,255.328767 60.7925636,241.692675 60.7925636,224.932485 C60.7925636,222.084834 60.3900528,219.330611 59.6547828,216.714611 L119.548256,189.071272 C128.34654,204.135029 144.653665,214.297626 163.305464,214.368658 L166.713047,251.850153 C156.183775,254.902579 148.46184,264.62683 148.46184,276.126223 C148.46184,290.063718 159.801252,301.403131 173.738748,301.403131 C187.676243,301.403131 199.015656,290.063718 199.015656,276.126223 C199.015656,263.043663 189.024558,252.251384 176.271558,250.976659 L172.864614,213.495164 C181.504838,211.880002 189.386753,208.086546 195.902436,202.689446 L280.787413,287.574423 C278.048548,291.614249 276.446184,296.484693 276.446184,301.723092 C276.446184,315.660587 287.785597,327 301.723092,327 C315.660587,327 327,315.660587 327,301.723092 C327,287.785597 315.660587,276.446184 301.723092,276.446184 Z M31,246 C19.4209231,246 10,236.579077 10,225 C10,213.420923 19.4209231,204 31,204 C39.3205231,204 46.5264308,208.864892 49.9232615,215.898923 C49.9626769,216.002308 50.0008,216.106338 50.0479692,216.208431 C50.0738154,216.264646 50.1087077,216.313108 50.1364923,216.368031 C51.3299385,219.003692 52,221.924308 52,225 C52,236.579077 42.5790769,246 31,246 Z M286,10 C303.093464,10 317,23.9065361 317,41 C317,58.0934639 303.093464,72 286,72 C268.906536,72 255,58.0934639 255,41 C255,23.9065361 268.906536,10 286,10 Z M56,71.5 C56,62.9534898 62.9534898,56 71.5,56 C80.0465102,56 87,62.9534898 87,71.5 C87,80.0465102 80.0465102,87 71.5,87 C62.9534898,87 56,80.0465102 56,71.5 Z M122,163.5 C122,140.617093 140.617093,122 163.5,122 C186.382907,122 205,140.617093 205,163.5 C205,186.382907 186.382907,205 163.5,205 C140.617093,205 122,186.382907 122,163.5 Z M189,275.5 C189,284.04651 182.04651,291 173.5,291 C164.95349,291 158,284.04651 158,275.5 C158,266.95349 164.95349,260 173.5,260 C182.04651,260 189,266.95349 189,275.5 Z M301.5,317 C292.95349,317 286,310.04651 286,301.5 C286,292.95349 292.95349,286 301.5,286 C310.04651,286 317,292.95349 317,301.5 C317,310.04651 310.04651,317 301.5,317 Z" id="Shape" stroke="#FFFFFF"></path>
                        <path d="M185.181818,163.090909 C185.181818,165.802036 187.379782,168 190.090909,168 C192.802036,168 195,165.802036 195,163.090909 C195,145.947709 181.052291,132 163.909091,132 C161.197964,132 159,134.197964 159,136.909091 C159,139.620218 161.197964,141.818182 163.909091,141.818182 C175.638545,141.818182 185.181818,151.361455 185.181818,163.090909 Z" id="Shape" stroke="#C3E0FB"></path>
                        <path d="M286.615385,30.2307692 C292.214154,30.2307692 296.769231,34.7858462 296.769231,40.3846154 C296.769231,42.9335385 298.835692,45 301.384615,45 C303.933538,45 306,42.9335385 306,40.3846154 C306,29.696 297.304,21 286.615385,21 C284.066462,21 282,23.0664615 282,25.6153846 C282,28.1643077 284.066462,30.2307692 286.615385,30.2307692 Z" id="Shape" stroke="#C3E0FB"></path>
                        <path d="M30.8913043,216 C28.19,216 26,218.19 26,220.891304 C26,223.592609 28.19,225.782609 30.8913043,225.782609 C31.0713043,225.782609 31.2173913,225.928696 31.2173913,226.108696 C31.2173913,228.81 33.4073913,231 36.1086957,231 C38.81,231 41,228.81 41,226.108696 C41,220.534565 36.4654348,216 30.8913043,216 Z" id="Shape" stroke="#C3E0FB"></path>
                    </g>
                    <g id="connection" transform="translate(1261.424074, 727.930312) rotate(189.000000) translate(-1261.424074, -727.930312) translate(1119.924074, 589.430312)">
                        <path d="M141.583248,80.3753559 C131.5774,73.5238699 125,62.01541 125,49 C125,48.3478731 125.016511,47.6995317 125.049138,47.0553717 L40.059354,32.3454179 C36.3233466,38.714673 29.4031712,43 21.5007428,43 C9.64435999,43 0,33.3544877 0,21.5 C0,9.64402681 9.64435999,0 21.4992572,0 C33.35564,0 43,9.64402681 43,21.5 C43,21.9270982 42.9874843,22.3513259 42.9628005,22.7723357 L126.845409,37.2906607 C131.793445,22.0488246 146.131023,11 163,11 C183.952687,11 201,28.0458248 201,49 C201,69.9541752 183.954175,87 163,87 C158.660959,87 154.489505,86.2690254 150.602287,84.923765 L104.091441,168.412117 C115.145047,175.999913 123.519152,187.22052 127.477485,200.337668 L186.469483,185.933566 C185.509774,182.112437 185,178.114635 185,174 C185,146.981127 206.981127,125 234,125 C261.018873,125 283,146.981127 283,174 C283,201.018873 261.018873,223 234,223 C214.620863,223 197.833342,211.692037 189.889188,195.327862 L129.537709,210.06391 C129.842803,212.50038 130,214.982176 130,217.5 C130,250.30721 103.308687,277 70.5,277 C37.6913127,277 11,250.308687 11,217.5 C11,184.691313 37.6913127,158 70.5,158 C79.3522721,158 87.7591989,159.943129 95.3166559,163.425264 L141.583248,80.3753559 Z M21.5,33 C27.8395893,33 32.9984959,27.8395893 33,21.5 C33,15.1589066 27.8395893,10 21.5,10 C15.1589066,10 10,15.1589066 10,21.5 C10,27.8410934 15.1589066,33 21.5,33 Z M163.5,76 C178.662122,76 191,63.6621224 191,48.5 C191,33.3378776 178.662122,21 163.5,21 C148.337878,21 136,33.3378776 136,48.5 C136,63.6621224 148.337878,76 163.5,76 Z M233.5,212 C254.731249,212 272,194.729772 272,173.5 C272,152.270228 254.729772,135 233.5,135 C212.271704,135 195,152.270228 195,173.5 C195,194.728296 212.270228,212 233.5,212 Z M70.5,267 C97.7959553,267 120,244.795955 120,217.5 C120,190.207004 97.7959553,168 70.5,168 C43.2040447,168 21,190.204045 21,217.5 C21,244.795955 43.2040447,267 70.5,267 Z" id="Combined-Shape" stroke="#FFFFFF"></path>
                        <path d="M70.9758366,242.951673 C56.6776533,242.951673 45.0483269,231.319403 45.0483269,217.024163 C45.0483269,214.25079 42.797537,212 40.0241634,212 C37.2507899,212 35,214.25079 35,217.024163 C35,236.861733 51.1397386,253 70.9758366,253 C73.7492101,253 76,250.74921 76,247.975837 C76,245.202463 73.7492101,242.951673 70.9758366,242.951673 Z" id="Shape" stroke="#C3E0FB"></path>
                    </g>
                    <g id="mol1">
                        <path d="M235.121759,78 C236.688968,78 238.254953,77.3979787 239.450563,76.1933193 L268.579843,46.8441647 C271.864249,48.4923213 275.562496,49.424344 279.473785,49.424344 C292.9977,49.424344 304,38.3387635 304,24.7124804 C304,11.0861974 292.9977,0 279.473785,0 C265.94987,0 254.94757,11.0855805 254.94757,24.7118636 C254.94757,29.9209515 256.559469,34.7556266 259.301474,38.7452512 L230.792955,67.4695621 C228.402348,69.878264 228.402348,73.7840005 230.792955,76.1933193 C231.988564,77.3979787 233.554549,78 235.121759,78 Z M279.5,12 C286.392663,12 292,17.6073369 292,24.5 C292,31.3926631 286.392663,37 279.5,37 C272.607337,37 267,31.3926631 267,24.5 C267,17.6073369 272.606714,12 279.5,12 Z" id="Shape" stroke="#C3E0FB"></path>
                        <path d="M215.174595,95 C216.755193,95 218.335173,94.3967914 219.540378,93.191609 L223.191806,89.5396348 C225.602834,87.1286526 225.602834,83.2192188 223.191188,80.8082366 C220.780777,78.3972545 216.87065,78.3972545 214.459622,80.8082366 L210.808194,84.4602109 C208.397166,86.871193 208.397166,90.7806269 210.808812,93.191609 C212.014635,94.3974088 213.594615,95 215.174595,95 Z" id="Shape" stroke="#C3E0FB"></path>
                        <path d="M316.958032,187.975078 C312.457446,187.975078 305.996596,190.009697 301.857414,194.805384 L219.977013,174.067742 C224.509641,165.467946 227.080349,155.683646 227.080349,145.308634 C227.080349,111.147579 199.249914,83.3557632 165.041389,83.3557632 C157.394582,83.3557632 150.068189,84.7482461 143.298207,87.2864659 L117.398268,47.1142906 C120.278915,43.5189406 122.007303,38.9642973 122.007303,34.0127687 C122.007303,22.4261795 112.568025,13 100.965335,13 C89.3626454,13 79.9233675,22.4261795 79.9233675,34.0127687 C79.9233675,45.5993579 89.3626454,55.0255374 100.965335,55.0255374 C103.146,55.0255374 105.249642,54.6920307 107.228816,54.0748587 L132.184766,92.7819427 C114.672899,103.745207 103.003046,123.190125 103.003046,145.308634 C103.003046,147.246911 103.097322,149.163652 103.272317,151.05701 L44.5098401,162.243649 C40.007405,156.193148 32.7980864,152.264907 24.6860625,152.264907 C11.0746225,152.264291 0,163.323546 0,176.916714 C0,190.509881 11.0746225,201.56852 24.6860625,201.56852 C38.2975025,201.56852 49.372125,190.509881 49.372125,176.916714 C49.372125,175.807896 49.2914053,174.717538 49.1484513,173.646871 L105.677888,163.317381 C111.099049,181.10338 124.331538,195.521084 141.368945,202.570259 C143.832235,203.585548 145.731272,204.293177 147.066058,204.693147 C148.377976,205.086264 150.448993,205.568265 153.279109,206.13915 C157.088956,206.872619 161.020191,207.26089 165.040773,207.26089 C184.415355,207.26089 201.74175,198.343585 213.127544,184.40522 L294.283933,204.528151 C295.914832,204.693147 295.914832,206.362866 295.914832,208.987231 C295.914832,220.573821 305.35411,230 316.9568,230 C328.55949,230 338,220.574436 338,208.987847 C338,197.401257 328.560722,187.975078 316.958032,187.975078 Z M100.5,42 C95.8135557,42 92,38.1864443 92,33.5 C92,28.812955 95.8135557,25 100.5,25 C105.186444,25 109,28.8135557 109,33.5 C109,38.1864443 105.186444,42 100.5,42 Z M24.5,190 C17.6073369,190 12,184.392663 12,177.5 C12,170.607337 17.6073369,165 24.5,165 C31.3926631,165 37,170.607337 37,177.5 C37,184.392663 31.3932861,190 24.5,190 Z M164.500307,195 C137.205934,195 115,172.794542 115,145.5 C115,118.205458 137.205321,96 164.500307,96 C191.794066,96 214,118.205458 214,145.5 C214,172.794542 191.794066,195 164.500307,195 Z M316.5,217 C311.812955,217 308,213.187045 308,208.5 C308,203.812955 311.813556,200 316.5,200 C321.186444,200 325,203.812955 325,208.5 C325,213.187045 321.186444,217 316.5,217 Z" id="Shape" stroke="#FFFFFF"></path>
                    </g>
                </g>
            </g>
        </g>
    </g>
</svg>
